talent/images/icons/flag.svg

<svg width="16" height="20" viewBox="0 0 16 20" fill="none" xmlns="http://www.w3.org/2000/svg">
<path d="M15.4464 9.28671L11.6751 5.23261L15.4464 1.17852C15.6349 0.966384 15.6821 0.659969 15.5878 0.424266C15.47 0.164992 15.2107 0 14.9278 0H0.714922C0.314227 0 0.0078125 0.306414 0.0078125 0.70711V18.5263C0.0078125 18.927 0.314227 19.2334 0.714922 19.2334C1.11562 19.2334 1.42203 18.927 1.42203 18.5263V10.4652H14.9278C15.3285 10.4652 15.6349 10.1352 15.6349 9.75812C15.6349 9.59313 15.5642 9.42813 15.4464 9.28671Z" fill="#AEBBCD"/>
</svg>

<svg width="16" height="20" fill="none" xmlns="http://www.w3.org/2000/svg"><path d="M15.446 9.287l-3.77-4.054 3.77-4.054a.748.748 0 00.142-.755.725.725 0 00-.66-.424H.715c-.4 0-.707.306-.707.707v17.82c0 .4.306.706.707.706.4 0 .707-.306.707-.707v-8.06h13.506c.4 0 .707-.33.707-.708a.74.74 0 00-.189-.471z" fill="#AEBBCD"/></svg>
